build/img/app-icon.svg

<svg width="42" height="42" viewBox="0 0 42 42" fill="none" xmlns="http://www.w3.org/2000/svg">
<path d="M37.8 0H4.2C1.8804 0 0 1.8804 0 4.2V37.8C0 40.1196 1.8804 42 4.2 42H37.8C40.1196 42 42 40.1196 42 37.8V4.2C42 1.8804 40.1196 0 37.8 0Z" fill="url(#paint0_linear)"/>
<path d="M5.66745 19.4027C5.82025 19.5915 6.04145 19.7123 6.28288 19.7387C6.52431 19.7652 6.76641 19.6951 6.95643 19.5439L7.80609 18.8614V33.1225C7.80719 33.5635 7.98279 33.9861 8.2945 34.298C8.60622 34.61 9.02871 34.7859 9.4697 34.7873H33.1241C33.5653 34.7861 33.9881 34.6103 34.3 34.2984C34.612 33.9864 34.7878 33.5636 34.789 33.1225V18.8899L35.6126 19.5523C35.7759 19.6814 35.9778 19.7519 36.1859 19.7526C36.3237 19.7525 36.4597 19.7209 36.5834 19.6603C36.7071 19.5997 36.8154 19.5116 36.8999 19.4027C37.0508 19.2123 37.1207 18.97 37.0942 18.7284C37.0678 18.4869 36.9473 18.2654 36.7588 18.1121L22.2835 6.4722L21.9508 6.30672C21.7431 6.21635 21.5188 6.17006 21.2923 6.17078C21.0657 6.17151 20.8418 6.21922 20.6346 6.31092L20.286 6.4722L5.80898 18.1138C5.62019 18.2666 5.49943 18.4878 5.473 18.7292C5.44657 18.9706 5.51661 19.2127 5.66786 19.4027" fill="white"/>
<path d="M27.0996 27.8242C27.563 27.6382 27.9806 27.3542 28.3239 26.9917C28.6608 26.6305 28.9235 26.2067 29.0971 25.7443C29.2888 25.2625 29.3847 24.7479 29.3794 24.2294C29.389 23.7053 29.293 23.1847 29.0971 22.6985C28.923 22.2411 28.6602 21.8226 28.3239 21.467C27.9777 21.1061 27.561 20.8202 27.0996 20.627C26.5944 20.4257 26.055 20.324 25.5112 20.3276H23.273V28.1656H25.5112C26.0577 28.1549 26.597 28.0389 27.0996 27.8242ZM25.5112 17.9642C26.3738 17.9592 27.2293 18.1201 28.0312 18.438C28.7917 18.7529 29.4864 19.2078 30.0791 19.779C30.6638 20.3474 31.1303 21.0259 31.4516 21.7753C31.788 22.5491 31.9553 23.3857 31.9426 24.2294C31.9512 25.0726 31.784 25.9084 31.4516 26.6834C31.1193 27.4272 30.6542 28.1041 30.0791 28.6809C29.4938 29.255 28.7967 29.7027 28.0312 29.996C27.234 30.3317 26.376 30.4989 25.5112 30.487H20.7106V17.9642H25.5112Z" fill="#231F20"/>
<path d="M14.4774 23.1474C14.1665 23.1473 13.8627 23.055 13.6043 22.8822C13.3459 22.7093 13.1445 22.4638 13.0256 22.1766C12.9067 21.8894 12.8757 21.5734 12.9364 21.2685C12.9971 20.9636 13.1468 20.6836 13.3666 20.4638C13.5864 20.244 13.8664 20.0943 14.1713 20.0336C14.4762 19.9729 14.7922 20.0039 15.0794 20.1228C15.3666 20.2417 15.6122 20.4431 15.785 20.7015C15.9578 20.9599 16.0501 21.2637 16.0503 21.5745C16.0505 21.7812 16.0099 21.9858 15.931 22.1767C15.852 22.3677 15.7362 22.5411 15.5901 22.6872C15.444 22.8333 15.2705 22.9492 15.0795 23.0282C14.8886 23.1071 14.684 23.1477 14.4774 23.1474ZM14.4774 17.7479C13.7203 17.7478 12.9802 17.9721 12.3506 18.3926C11.7211 18.8131 11.2304 19.4109 10.9406 20.1103C10.6508 20.8097 10.5749 21.5793 10.7226 22.3219C10.8702 23.0644 11.2348 23.7465 11.7701 24.2818C12.3054 24.8171 12.9875 25.1817 13.73 25.3293C14.4726 25.477 15.2422 25.4011 15.9416 25.1113C16.641 24.8215 17.2388 24.3308 17.6593 23.7013C18.0798 23.0717 18.3041 22.3316 18.304 21.5745C18.3034 20.5598 17.9001 19.5868 17.1826 18.8693C16.4651 18.1518 15.4921 17.7485 14.4774 17.7479Z" fill="#231F20"/>
<defs>
<linearGradient id="paint0_linear" x1="21" y1="0" x2="21" y2="42" gradientUnits="userSpaceOnUse">
<stop stop-color="#7FB0F8"/>
<stop offset="1" stop-color="#D5D3FF"/>
</linearGradient>
</defs>
</svg>

<svg width="42" height="42" viewBox="0 0 42 42" fill="none" xmlns="http://www.w3.org/2000/svg"><path d="M37.8 0H4.2A4.2 4.2 0 000 4.2v33.6A4.2 4.2 0 004.2 42h33.6a4.2 4.2 0 004.2-4.2V4.2A4.2 4.2 0 0037.8 0z" fill="url(#paint0_linear)"/><path d="M5.667 19.403a.92.92 0 001.29.14l.85-.682v14.262a1.669 1.669 0 001.663 1.664h23.654a1.67 1.67 0 001.665-1.664V18.89l.824.662c.163.13.365.2.573.2a.905.905 0 00.714-.35.924.924 0 00-.141-1.29L22.283 6.472l-.332-.165a1.638 1.638 0 00-1.316.004l-.349.161L5.809 18.114a.92.92 0 00-.141 1.289" fill="#fff"/><path d="M27.1 27.824c.463-.186.88-.47 1.224-.832.337-.361.6-.785.773-1.248.192-.482.288-.996.282-1.515a3.905 3.905 0 00-.282-1.53 3.716 3.716 0 00-.773-1.232 3.65 3.65 0 00-1.224-.84 4.216 4.216 0 00-1.589-.3h-2.238v7.839h2.238a4.256 4.256 0 001.589-.342zm-1.589-9.86a6.732 6.732 0 012.52.474c.76.315 1.455.77 2.048 1.341a6.181 6.181 0 011.373 1.996c.336.774.503 1.61.49 2.454a6.069 6.069 0 01-.49 2.454 6.7 6.7 0 01-1.373 1.998 5.98 5.98 0 01-2.048 1.315 6.271 6.271 0 01-2.52.491h-4.8V17.964h4.8zm-11.034 5.183a1.571 1.571 0 11.001-3.143 1.571 1.571 0 010 3.143zm0-5.4a3.828 3.828 0 100 7.657 3.828 3.828 0 000-7.656z" fill="#231F20"/><defs><linearGradient id="paint0_linear" x1="21" y1="0" x2="21" y2="42" gradientUnits="userSpaceOnUse"><stop stop-color="#7FB0F8"/><stop offset="1" stop-color="#D5D3FF"/></linearGradient></defs></svg>
